X:3257
T:Come West Along the Road
R:reel
S:Session
H:See also #432, in A. This version is also played in A.
D:Arcady: Many Happy Returns
D:Noel Hill & Tony McMahon: \'I gCnoc na Gra\'i
Z:id:hn-reel-422
M:C|
K:G
d2BG dGBG|~G2Bd efge|d2BG dGBG|1 ABcd edBc:|2 ABcd edBd||
|:g2bg egdg|(3efg dg edBd|1 g2bg egdB|ABcd edBd:|2 gabg efge|dega bage||


